Numix-GalliumOS/16/actions/edit-table-cell-merge.svg

<svg xmlns="http://www.w3.org/2000/svg" viewBox="0 0 16 16">
 <path d="m 1 2 0 13 13 0 0 -13 m -12 1 3 0 0 3 -3 0 m 4 -3 3 0 0 3 -3 0 m 4 -3 3 0 0 3 -3 0 z m -8 4 11 0 0 3 -11 0 z m 0 4 3 0 0 3 -3 0 z m 4 0 3 0 0 3 -3 0 z m 4 0 3 0 0 3 -3 0 z" style="fill:#888"/>
 <rect width="11" height="3" x="2" y="7" style="fill:#268bd2;opacity:0.2;fill-opacity:1;stroke:none"/>
 <path d="m 5 7 0 3 -2 -1.5" style="fill:#268bd2;opacity:1;fill-opacity:1;stroke:none"/>
 <path d="m 10 7 0 3 2 -1.5 z" style="fill:#268bd2;opacity:1;fill-opacity:1;stroke:none"/>
</svg>

<?xml version="1.0" encoding="UTF-8" standalone="no"?>
<svg
   xmlns:dc="http://purl.org/dc/elements/1.1/"
   xmlns:cc="http://creativecommons.org/ns#"
   xmlns:rdf="http://www.w3.org/1999/02/22-rdf-syntax-ns#"
   xmlns:svg="http://www.w3.org/2000/svg"
   xmlns="http://www.w3.org/2000/svg"
   xmlns:sodipodi="http://sodipodi.sourceforge.net/DTD/sodipodi-0.dtd"
   xmlns:inkscape="http://www.inkscape.org/namespaces/inkscape"
   width="16"
   height="16"
   viewBox="0 0 16 16"
   id="svg2"
   version="1.1"
   inkscape:version="0.91 r13725"
   sodipodi:docname="edit-table-cell-merge0.svg">
  <metadata
     id="metadata18">
    <rdf:RDF>
      <cc:Work
         rdf:about="">
        <dc:format>image/svg+xml</dc:format>
        <dc:type
           rdf:resource="http://purl.org/dc/dcmitype/StillImage" />
        <dc:title></dc:title>
      </cc:Work>
    </rdf:RDF>
  </metadata>
  <defs
     id="defs16" />
  <sodipodi:namedview
     pagecolor="#ffffff"
     bordercolor="#666666"
     borderopacity="1"
     objecttolerance="10"
     gridtolerance="10"
     guidetolerance="10"
     inkscape:pageopacity="0"
     inkscape:pageshadow="2"
     inkscape:window-width="1366"
     inkscape:window-height="704"
     id="namedview14"
     showgrid="false"
     inkscape:zoom="1"
     inkscape:cx="3.8584337"
     inkscape:cy="7.6892242"
     inkscape:window-x="0"
     inkscape:window-y="27"
     inkscape:window-maximized="1"
     inkscape:current-layer="svg2"
     inkscape:object-nodes="true">
    <inkscape:grid
       type="xygrid"
       id="grid4146" />
  </sodipodi:namedview>
  <path
     style="fill:#888888"
     d="M 1,2 1,15 14,15 14,2 Z M 2,3 5,3 5,6 2,6 Z M 6,3 9,3 9,6 6,6 Z m 4,0 3,0 0,3 -3,0 z m -8,4 11,0 0,3 -11,0 z m 0,4 3,0 0,3 -3,0 z m 4,0 3,0 0,3 -3,0 z m 4,0 3,0 0,3 -3,0 z"
     id="path6"
     inkscape:connector-curvature="0"
     sodipodi:nodetypes="cccccccccccccccccccccccccccccccccccccccc" />
  <rect
     style="opacity:0.2;fill:#268bd2;fill-opacity:1;stroke:none;stroke-width:4;stroke-linecap:round;stroke-linejoin:round;stroke-miterlimit:4;stroke-dasharray:none;stroke-opacity:1"
     id="rect4171"
     width="11"
     height="3"
     x="2"
     y="7" />
  <path
     style="opacity:1;fill:#268bd2;fill-opacity:1;stroke:none;stroke-width:4;stroke-linecap:round;stroke-linejoin:round;stroke-miterlimit:4;stroke-dasharray:none;stroke-opacity:1"
     d="M 5,7 5,10 3,8.5 Z"
     id="rect4178"
     inkscape:connector-curvature="0"
     sodipodi:nodetypes="cccc" />
  <path
     sodipodi:nodetypes="cccc"
     inkscape:connector-curvature="0"
     id="path4141"
     d="m 10,7 0,3 2,-1.5 z"
     style="opacity:1;fill:#268bd2;fill-opacity:1;stroke:none;stroke-width:4;stroke-linecap:round;stroke-linejoin:round;stroke-miterlimit:4;stroke-dasharray:none;stroke-opacity:1" />
</svg>
